assets/02_eyes/Eye 40.svg

<svg width="400" height="180" viewBox="0 0 400 180" fill="none" xmlns="http://www.w3.org/2000/svg">
<g clip-path="url(#clip0_70_1571)">
<path d="M111 90C111 40.2929 151.517 0 201.5 0C251.483 0 292 40.2929 292 90H111Z" fill="white"/>
<path d="M201.5 90C226.491 90 246.75 69.8528 246.75 45C246.75 20.1472 226.491 0 201.5 0C176.509 0 156.25 20.1472 156.25 45C156.25 69.8528 176.509 90 201.5 90Z" fill="#FFCF4B"/>
<path d="M227.321 70.9888C227.321 70.9888 200.731 46.0516 176.244 70.424C200.752 46.0516 175.676 19.629 175.676 19.629C198.143 41.9721 225.091 21.8675 225.091 21.8675C225.091 21.8675 204.875 48.6667 227.342 71.0098L227.321 70.9888Z" fill="white"/>
</g>
<g clip-path="url(#clip1_70_1571)">
<path d="M290 179.457V180H110V179.436C110.314 130.103 150.477 90.2141 200 90.2141C249.523 90.2141 289.728 130.124 290 179.457Z" fill="white"/>
<path d="M263.49 180H136.531C136.531 145.022 164.947 116.646 200 116.646C235.054 116.646 263.49 145.022 263.49 180Z" fill="#5CB94B"/>
<path d="M228.311 180H171.689C171.689 164.412 184.358 151.771 199.979 151.771C215.601 151.771 228.29 164.412 228.29 180H228.311Z" fill="white"/>
</g>
<defs>
<clipPath id="clip0_70_1571">
<rect width="181" height="90" fill="white" transform="translate(111)"/>
</clipPath>
<clipPath id="clip1_70_1571">
<rect width="180" height="90" fill="white" transform="translate(110 90)"/>
</clipPath>
</defs>
</svg>

<svg xmlns="http://www.w3.org/2000/svg" width="400" height="180" fill="none" viewBox="0 0 400 180"><g clip-path="url(#a)"><path fill="#fff" d="M111 90c0-49.707 40.517-90 90.5-90S292 40.293 292 90z"/><path fill="#ffcf4b" d="M201.5 90c24.991 0 45.25-20.147 45.25-45S226.491 0 201.5 0s-45.25 20.147-45.25 45 20.259 45 45.25 45"/><path fill="#fff" d="M227.321 70.989s-26.59-24.937-51.077-.565c24.508-24.372-.568-50.795-.568-50.795 22.467 22.343 49.415 2.238 49.415 2.238s-20.216 26.8 2.251 49.143z"/></g><g clip-path="url(#b)"><path fill="#fff" d="M290 179.457V180H110v-.564c.314-49.333 40.477-89.222 90-89.222s89.728 39.91 90 89.243"/><path fill="#5cb94b" d="M263.49 180H136.531c0-34.978 28.416-63.354 63.469-63.354 35.054 0 63.49 28.376 63.49 63.354"/><path fill="#fff" d="M228.311 180h-56.622c0-15.588 12.669-28.229 28.29-28.229 15.622 0 28.311 12.641 28.311 28.229z"/></g><defs><clipPath id="a"><path fill="#fff" d="M111 0h181v90H111z"/></clipPath><clipPath id="b"><path fill="#fff" d="M110 90h180v90H110z"/></clipPath></defs></svg>
